X:1
T:O Canada
T:Canadian Anthem
T:Calixa Lavallée 
T:Adolphe-Basile Routhie Robert Stanley Weir
%%score 1 { ( 2 4 ) | ( 3 5 ) }
L:1/8
Q:1/4=112
M:4/4
K:G
V:1 treble nm="Mandolin\nand/or Choir"
V:2 treble nm="Piano"
V:4 treble 
V:3 bass 
V:5 bass 
V:1
"^Moderato" z8 |!mf!"^Verse" B4 d3 d | G6 A2 | B2 c2 d2 e2 | A6 z2 | B4 ^c3 c | d6 e2 | %7
w: |Ô Ca- na-|da! Ter-|re de nos aï-|eux,|ton front est|ceint de|
w: |O Ca- na-|da! Our|home and na- tive|land!|True pa- triot|love in|
 f2 f2 e2 e2 | d6 A>B | (c3 B A2) B>c | (d3 c B2) c>d | e2 d2 c2 B2 | A6 A>B | (c3 B A2) B>c | %14
w: fleu- rons glo- ri-|eux! Car ton|bras sait por- ter l'é-|pé- * e, il *|sait por- ter la|croix! Ton his-|toire est une é- po-|
w: all thy sons com-|mand. With *|glow- ing hearts we *|see thee rise, the *|True North strong and|free! From *|far and wide, O *|
 (d3 c B2) B2 |!<(! A2 d2 (d^c)(Bc) | d8!<)! ||!f!"^Chorus" B4 d3 d | G6 z2 | c4 e3 e | A6 z2 | %21
w: pé- * e, des|plus bril- lants * ex- *|ploits.|Et ta va-|leur,|de foi trem-|pée|
w: Ca- na- da, we|stand on guard * for *|thee.|God keep our|land|glo- rious and|free!|
 d4 ^d3 d | e2 c2 B2 A2 | G4 A4 | B6 z2 | d4 g3 g | e2 c2 B2 A2 | d4 F4 | G8 |] %29
w: pro- té- ge-|ra nos foy- ers|et nos|droits.|Pro- té- ge-|ra nos foy- ers|et nos|droits.|
w: O Ca- na-|da we stand on|guard for|thee.|O Ca- na-|da we stand on|guard for|thee.|
V:2
 [B,DG]4- [B,DG]2 z2 |!mf! [B,DG]4 [DFc]2 [CFA]2 | [B,EG]6 [FA]2 | [DGB]2 [CGA]2 [DGB]2 [EGc]2 | %4
 ([EG]4 [DF]2) z2 | [DB]4 [^CGA]2 [CGA]2 | A2 G2 F2 B2 | [FAd]4 [EG^c]4 | [FAd]6 A>B | %9
 (c3 B A2) B>c | (d3 c B2) c>d | [Ge]2 G2 G2 [GB]2 | A6 A>B | (c3 B A2) B>c | %14
 ([Gd]3 [Fc] [GB]2) B2 |!<(! [DFA]4 [EGA]4 | [DFA]8!<)! ||!f! [B,DG]4 [CDF]4 | [B,DG]6 z2 | %19
 [EAc]4 [EAc]4 | [DA]6 z2 | [DGB]4 [^D=FB]4 | [EGc]2 [EGc]2 [DGB]2 [EA]2 | [EG]4 [EFA]4 | %24
 [^DFAB]6 z2 | [DGd]4 [^DG^d]3 [=DGd] | [EGe]2 [EAc]2 [DGB]2 [CEA]2 | [DGB]4 [CDF]4 | [B,DG]8 |] %29
V:3
 [G,,G,]2 [G,,G,]>[G,,G,] [G,,G,]2 z2 | [G,,G,]2 G,,2 D,2 D,2 | E,2 B,,2 E,2 D,2 | %3
 G,,2 A,,2 B,,2 C,2 | D,2 A,,2 D,,2 z2 | [G,,G,]2 [F,,F,]2 [E,,E,]4 | %6
 [F,,F,]2 [E,,E,]2 [D,,D,]2 G,,2 | A,,4 A,,4 | [D,,D,]2 D,>D, D,2 [C,C]>[B,,B,] | %9
 ([A,,A,]3 [B,,B,] [C,C]2) [D,D]>[C,C] | ([B,,B,]3 [A,,A,] [G,,G,]2) [A,,A,]>[B,,B,] | %11
 [C,C]2 [B,,B,]2 [C,C]2 [^C,^C]2 | D,2 D,>D, D,2 D,2 | (A,3 B, C2) D>C | (B,3 A, G,2) ^G,2 | %15
 [A,,A,]4 [A,,A,]4 | A,8 || [G,,G,]2 [E,,E,]2 [D,,D,]2 [D,,D,]2 | %18
 [G,,G,]2 [D,,D,]2 [C,,C,]2 [B,,,B,,]2 | [A,,,A,,]4 [G,,G,]4 | %20
 [F,,F,]2 [E,,E,]2 [D,,D,]2 [F,,F,]2 | [G,,G,]4 [G,,G,]4 | [C,C]2 [A,,A,]2 [B,,B,]2 [C,C]2 | %23
 B,4 C4 | [B,,B,]2 [B,,B,]>[B,,B,] [B,,B,]2 [B,,B,]2 | [B,,B,]4 [B,,B,]3 [B,,B,] | %26
 [C,C]2 [A,,A,]2 [B,,B,]2 C,2 | D,2 [D,,D,]>[D,,D,] [D,,D,]2 [D,,D,]2 | [G,,G,]8 |] %29
V:4
 x8 | x8 | x8 | x8 | C6 z2 | x8 | D6 E2 | x8 | z2 D>D D2 [DF]2 | [DF]4 [DF]2 F2 | %10
 [DG]4 [DG]2 [DG]2 | E2 D2 E2 E2 | F6 F2 | F4 F2 F2 | D6 [D^E]2 | x8 | x8 || x8 | x8 | x8 | %20
 z2 G2 F2 z2 | x8 | x8 | x8 | x8 | x8 | x8 | x8 | x8 |] %29
V:5
 x8 | x8 | x8 | x8 | x8 | x8 | x8 | x8 | x8 | x8 | x8 | x8 | D2 D>D D2 C>B, | D,8 | G,,6 G,,2 | %15
 x8 | D,2 C,2 B,,2 A,,2 || x8 | x8 | x8 | x8 | x8 | x8 | E,2 D,2 C,4 | x8 | x8 | x8 | x8 | x8 |] %29

